packages/tokens/icons/cloudCircuits/size16Px.svg

<svg viewBox="0 0 16 16" fill="none" xmlns="http://www.w3.org/2000/svg" width="1em" height="1em"><path d="M10.8388 3.83485C10.8878 4.03946 11.0597 4.19145 11.2688 4.2151C12.5038 4.35478 13.5 5.46332 13.5 6.85C13.5 8.33682 12.358 9.5 11 9.5L4.57143 9.5C3.45012 9.5 2.5 8.5383 2.5 7.3C2.5 6.0617 3.45012 5.1 4.57143 5.1C4.84757 5.1 5.07143 4.87614 5.07143 4.6C5.07143 2.86465 6.4053 1.5 8 1.5C9.35199 1.5 10.5132 2.47706 10.8388 3.83485Z" stroke="currentColor" stroke-linecap="square" stroke-linejoin="round"/><path d="M3.5 12.5C3.5 12.7761 3.27614 13 3 13C2.72386 13 2.5 12.7761 2.5 12.5C2.5 12.2239 2.72386 12 3 12C3.27614 12 3.5 12.2239 3.5 12.5Z" stroke="currentColor"/><path d="M5.5 9V11.5C5.5 12.0523 5.05228 12.5 4.5 12.5H3" stroke="currentColor"/><path d="M12.5 12.5C12.5 12.7761 12.7239 13 13 13C13.2761 13 13.5 12.7761 13.5 12.5C13.5 12.2239 13.2761 12 13 12C12.7239 12 12.5 12.2239 12.5 12.5Z" stroke="currentColor"/><path d="M10.5 9V11.5C10.5 12.0523 10.9477 12.5 11.5 12.5H13" stroke="currentColor"/><path d="M8.00003 9L8.00003 13.5" stroke="currentColor"/><path d="M8.50003 14C8.50003 14.2761 8.27617 14.5 8.00003 14.5C7.72389 14.5 7.50003 14.2761 7.50003 14C7.50003 13.7239 7.72389 13.5 8.00003 13.5C8.27617 13.5 8.50003 13.7239 8.50003 14Z" stroke="currentColor"/></svg>

<svg xmlns="http://www.w3.org/2000/svg" fill="none" viewBox="0 0 16 16" width="1em" height="1em"><path stroke="currentColor" stroke-linecap="square" stroke-linejoin="round" d="M10.839 3.835a.5.5 0 0 0 .43.38c1.235.14 2.231 1.248 2.231 2.635 0 1.487-1.142 2.65-2.5 2.65H4.571C3.451 9.5 2.5 8.538 2.5 7.3c0-1.238.95-2.2 2.071-2.2a.5.5 0 0 0 .5-.5c0-1.735 1.334-3.1 2.929-3.1 1.352 0 2.513.977 2.839 2.335Z"/><path stroke="currentColor" d="M3.5 12.5a.5.5 0 1 1-1 0 .5.5 0 0 1 1 0Z"/><path stroke="currentColor" d="M5.5 9v2.5a1 1 0 0 1-1 1H3m9.5 0a.5.5 0 1 0 1 0 .5.5 0 0 0-1 0Z"/><path stroke="currentColor" d="M10.5 9v2.5a1 1 0 0 0 1 1H13M8 9v4.5m.5.5a.5.5 0 1 1-1 0 .5.5 0 0 1 1 0Z"/></svg>
